overrides/.icons/spell/lv7.svg

<svg xmlns="http://www.w3.org/2000/svg" viewBox="0 0 24 24"><path d="m4 7 2 10h2l2-10H8l-1 5-1-5H4m11 0v2h-1v6h1v2h-4v-2h1V9h-1V7h4m5 0v2h-1v6h1v2h-4v-2h1V9h-1V7h4Z"/> 
<path
     id="rect1"
     style="fill-opacity:1;-inkscape-stroke:none;paint-order:stroke markers fill"
     d="M 4.5800781 2 C 3.1679885 2 2 3.1679879 2 4.5800781 L 2 5.3398438 L 4 5.3398438 L 4 4.5800781 C 4 4.2413913 4.2413915 4 4.5800781 4 L 19.419922 4 C 19.758609 4 20 4.2413916 20 4.5800781 L 20 5.3398438 L 22 5.3398438 L 22 4.5800781 C 22 3.1679876 20.832011 2 19.419922 2 L 4.5800781 2 z M 2 18.660156 L 2 19.419922 C 2 20.832011 3.1679875 22 4.5800781 22 L 19.419922 22 C 20.832012 22 22 20.832012 22 19.419922 L 22 18.660156 L 20 18.660156 L 20 19.419922 C 20 19.758608 19.758608 20 19.419922 20 L 4.5800781 20 C 4.2413915 20 4 19.758609 4 19.419922 L 4 18.660156 L 2 18.660156 z " />
</svg>

<?xml version="1.0" encoding="UTF-8"?>
<svg viewBox="0 0 24 24" xmlns="http://www.w3.org/2000/svg">
 <path d="m4 7 2 10h2l2-10H8l-1 5-1-5H4m11 0v2h-1v6h1v2h-4v-2h1V9h-1V7h4m5 0v2h-1v6h1v2h-4v-2h1V9h-1V7h4Z"/>
 <path id="rect1" d="m4.5801 2c-1.4121 0-2.5801 1.168-2.5801 2.5801v0.75977h2v-0.75977c0-0.33869 0.24139-0.58008 0.58008-0.58008h14.84c0.33869 0 0.58008 0.24139 0.58008 0.58008v0.75977h2v-0.75977c0-1.4121-1.168-2.5801-2.5801-2.5801h-14.84zm-2.5801 16.66v0.75977c0 1.4121 1.168 2.5801 2.5801 2.5801h14.84c1.4121 0 2.5801-1.168 2.5801-2.5801v-0.75977h-2v0.75977c0 0.33869-0.24139 0.58008-0.58008 0.58008h-14.84c-0.33869 0-0.58008-0.24139-0.58008-0.58008v-0.75977h-2z" style="-inkscape-stroke:none;paint-order:stroke markers fill"/>
</svg>
